apps/symbolic/preferences-system-network-proxy-symbolic.svg

<svg height="24" viewBox="0 0 24 24" width="24" xmlns="http://www.w3.org/2000/svg"><path d="m12.9 17.4h.9a.9.9 0 0 1  .9.9h6.3v1.8h-6.3a.9.9 0 0 1 -.9.9h-3.6a.9.9 0 0 1 -.9-.9h-6.3v-1.8h6.3a.9.9 0 0 1  .9-.9h.9v-1.494c-2.637-1.089-4.5-3.906-4.5-6.903v-3.6l5.4-2.403 5.4 2.403v3.6c0 2.997-1.863 5.814-4.5 6.903zm-.9-12.6-3.6 1.521v2.979h3.6zm0 4.5v5.4c1.719-.423 3.6-2.646 3.6-4.5v-.9z" fill="#b3b3b3" stroke-width=".9"/></svg>

<?xml version="1.0" encoding="UTF-8" standalone="no"?>
<svg
   xmlns:dc="http://purl.org/dc/elements/1.1/"
   xmlns:cc="http://creativecommons.org/ns#"
   xmlns:rdf="http://www.w3.org/1999/02/22-rdf-syntax-ns#"
   xmlns:svg="http://www.w3.org/2000/svg"
   xmlns="http://www.w3.org/2000/svg"
   xmlns:sodipodi="http://sodipodi.sourceforge.net/DTD/sodipodi-0.dtd"
   xmlns:inkscape="http://www.inkscape.org/namespaces/inkscape"
   version="1.1"
   width="24"
   height="24"
   viewBox="0 0 24 24"
   id="svg2"
   inkscape:version="0.92.1 r15371"
   sodipodi:docname="preferences-system-network-proxy-symbolic.svg">
  <metadata
     id="metadata10">
    <rdf:RDF>
      <cc:Work
         rdf:about="">
        <dc:format>image/svg+xml</dc:format>
        <dc:type
           rdf:resource="http://purl.org/dc/dcmitype/StillImage" />
      </cc:Work>
    </rdf:RDF>
  </metadata>
  <defs
     id="defs8" />
  <sodipodi:namedview
     pagecolor="#ffffff"
     bordercolor="#666666"
     borderopacity="1"
     objecttolerance="10"
     gridtolerance="10"
     guidetolerance="10"
     inkscape:pageopacity="0"
     inkscape:pageshadow="2"
     inkscape:window-width="640"
     inkscape:window-height="480"
     id="namedview6"
     showgrid="false"
     showguides="false"
     inkscape:zoom="25.291667"
     inkscape:cx="4.9621087"
     inkscape:cy="12"
     inkscape:current-layer="svg2">
    <sodipodi:guide
       position="32.342669,19.729819"
       orientation="1,0"
       id="guide4138"
       inkscape:locked="false" />
  </sodipodi:namedview>
  <path
     d="m 12.9,17.4 h 0.9 a 0.9,0.9 0 0 1 0.9,0.9 H 21 v 1.8 H 14.7 A 0.9,0.9 0 0 1 13.8,21 H 10.2 A 0.9,0.9 0 0 1 9.3,20.1 H 3 v -1.8 h 6.3 a 0.9,0.9 0 0 1 0.9,-0.9 h 0.9 V 15.906 C 8.463,14.817 6.6,12 6.6,9.003 v -3.6 L 12,3 17.4,5.403 v 3.6 c 0,2.997 -1.863,5.814 -4.5,6.903 V 17.4 M 12,4.8 8.4,6.321 V 9.3 H 12 V 4.8 m 0,4.5 v 5.4 c 1.719,-0.423 3.6,-2.646 3.6,-4.5 V 9.3 Z"
     id="path4"
     style="fill:#b3b3b3;fill-opacity:1;stroke-width:0.89999998"
     inkscape:connector-curvature="0" />
</svg>
